X:0916
M:6/4
L:1/4
Q:3/4=100 "Lively"
K:B Minor
  d>ed d2d|e>fe  e3    | e>ga         b>ag       |f3 a2d|
  d>ed d2d|e>fa  b2a/g/| f>ed         c>B^A      |B3 f2|]

